svg/black/exp.svg

<svg height="32" viewBox="0 0 32 32" width="32" xmlns="http://www.w3.org/2000/svg"><path d="m7.5 11.669873v8.660254l4.2735394-2.4673291c-.2393398-.5607407-.3719001-1.1786331-.3719001-1.8277102 0-.6707964.1415801-1.3082862.3962841-1.8838075zm.57040821-.8253752 4.22857979 2.4413717c.7442399-1.0147371 1.8900186-1.7125131 3.201012-1.8552969v-5.12510304zm16.42959179 9.4856292v-8.660254l-4.2979234 2.4814072c.254704.5755213.3962841 1.2130111.3962841 1.8838075 0 .6490771-.1325603 1.2669695-.3719001 1.8277102zm-.45867.8898873-4.3045101-2.48521c-.7430148 1.0415141-1.9046153 1.7597046-3.2368199 1.9047985v5.0631836zm-16.08266005 0 7.54133005 4.4827721v-5.0631836c-1.3322046-.1450939-2.4938051-.8632844-3.2368199-1.9047985zm15.97092185-10.3755165-7.4295918-4.53902824v5.12510304c1.3109934.1427838 2.4567721.8405598 3.201012 1.8552969zm-7.9295918 21.1555022c-8.836556 0-16-7.163444-16-16s7.163444-16 16-16 16 7.163444 16 16-7.163444 16-16 16z" fill-rule="evenodd"/></svg>

<svg height="32" width="32" xmlns="http://www.w3.org/2000/svg"><path d="M7.5 11.67v8.66l4.274-2.467a4.645 4.645 0 0 1-.372-1.828c0-.67.141-1.308.396-1.884zm.57-.826l4.229 2.442A4.588 4.588 0 0 1 15.5 11.43V6.305zM24.5 20.33v-8.66l-4.298 2.481c.255.576.396 1.213.396 1.884 0 .65-.132 1.267-.372 1.828zm-.459.89l-4.304-2.485A4.589 4.589 0 0 1 16.5 20.64v5.063zm-16.082 0l7.541 4.483V20.64a4.589 4.589 0 0 1-3.237-1.905zm15.97-10.376L16.5 6.305v5.126a4.588 4.588 0 0 1 3.201 1.855zM16 32C7.163 32 0 24.837 0 16S7.163 0 16 0s16 7.163 16 16-7.163 16-16 16z" fill-rule="evenodd"/></svg>
